X: 348
T:Comment peult avoir joye
N: Derived from Jos2807-Comment_peult_avoir_joye.krn
C: Josquin des Prez
%%abc-version 2.0
%%abcx-abcm2ps-target-version 5.9.1 (29 Sep 2008)
%%abc-creator hum2abc beta
%%abcx-conversion-date 2019/02/12 16:15:54
%%abc-edited-by Jesse Rodin
%%abc-edited-by Jesse Rodin; Victoria Chang 2011/07/27
%%abcx-initial-encoding-date 2011/07/27/
%%humdrum-veritas 3512306708
%%humdrum-veritas-data 2772468226
%%linebreak <none>
%%barnumbers 0
L: 1/4
M: 2/1
Q: 1/2=120
%%staves [1 2 3 4]
V: 1 clef=treble
V: 2 clef=treble-8
V: 3 clef=treble-8
V: 4 clef=treble-8
K: C
[V:1] z8 | 
[V:2] z4c4 | 
[V:3] z8 | 
[V:4] c4g4- | 
[V:1] z8 | 
[V:2] g6f2 | 
[V:3] z8 | 
[V:4] g2f2e2d2 | 
[V:1] z8 | 
[V:2] e4c4 | 
[V:3] z8 | 
[V:4] c2B2A2G2 | 
[V:1] z8 | 
[V:2] d8 | 
[V:3] z8 | 
[V:4] F2E2D4 | 
[V:1] z4c4 | 
[V:2] e8 | 
[V:3] z8 | 
[V:4] C4c2d2 | 
[V:1] g6f2 | 
[V:2] c3de2f2 | 
[V:3] z8 | 
[V:4] e4c2d2 | 
[V:1] e4c4 | 
[V:2] g2e4dc | 
[V:3] z4c4 | 
[V:4] e2c4BA | 
[V:1] d8 | 
[V:2] B2G2g4- | 
[V:3] g6f2 | 
[V:4] G6AB | 
[V:1] e8 | 
[V:2] g2fefedc | 
[V:3] e4c4 | 
[V:4] cBAGA4 | 
[V:1] z4f4 | 
[V:2] B2G2A2B2 | 
[V:3] d8 | 
[V:4] G3FD4 | 
[V:1] e6dc | 
[V:2] c2d2e2f2 | 
[V:3] e8 | 
[V:4] C4c4- | 
[V:1] e4d4- | 
[V:2] g2c2d4 | 
[V:3] z4f4 | 
[V:4] c4B4 | 
[V:1] d2c2c4- | 
[V:2] e4c4 | 
[V:3] e6dc | 
[V:4] c8 | 
[V:1] c4B4 | 
[V:2] g4z2g2 | 
[V:3] e4d4- | 
[V:4] z4G4 | 
[V:1] c8 | 
[V:2] f2e3dcB | 
[V:3] d2c2c4- | 
[V:4] A3Bc2F2- | 
[V:1] z8 | 
[V:2] AGG4F2 | 
[V:3] c4B4 | 
[V:4] F2E2D4 | 
[V:1] z4c4 | 
[V:2] G4z4 | 
[V:3] c8 | 
[V:4] C8 | 
[V:1] g6f2 | 
[V:2] c4g4- | 
[V:3] z8 | 
[V:4] z4C4 | 
[V:1] e4c4 | 
[V:2] g2f2e2dc | 
[V:3] z4c4 | 
[V:4] G4A4 | 
[V:1] d8 | 
[V:2] B2G2g4- | 
[V:3] g6f2 | 
[V:4] G6AB | 
[V:1] e8 | 
[V:2] g2fefedc | 
[V:3] e4c4 | 
[V:4] cBAGA4 | 
[V:1] z4f4 | 
[V:2] B2G2A2B2 | 
[V:3] d8 | 
[V:4] G3FD4 | 
[V:1] e6dc | 
[V:2] c6B2 | 
[V:3] e8 | 
[V:4] C8- | 
[V:1] e4d4- | 
[V:2] G2A2B4 | 
[V:3] z4f4 | 
[V:4] C4B,4 | 
[V:1] d2c2c4- | 
[V:2] G4g4- | 
[V:3] e6dc | 
[V:4] C8 | 
[V:1] c4B4 | 
[V:2] g8 | 
[V:3] e4d4- | 
[V:4] z4G4 | 
[V:1] c8 | 
[V:2] f2e3dcB | 
[V:3] d2c2c4- | 
[V:4] A3Bc2F2- | 
[V:1] z8 | 
[V:2] AGG4F2 | 
[V:3] c4B4 | 
[V:4] F2E2D4 | 
[V:1] z4G4 | 
[V:2] G4c4- | 
[V:3] c8 | 
[V:4] C8- | 
[V:1] c6c2 | 
[V:2] c2c2c3d | 
[V:3] z8 | 
[V:4] C8 | 
[V:1] c4d4 | 
[V:2] e2c2g4 | 
[V:3] z4G4 | 
[V:4] z8 | 
[V:1] e6dc | 
[V:2] z2g3fe2- | 
[V:3] c6c2 | 
[V:4] z8 | 
[V:1] c4z4 | 
[V:2] e2dcB4 | 
[V:3] c4d4 | 
[V:4] z4G4 | 
[V:1] g8 | 
[V:2] z4c4 | 
[V:3] e6dc | 
[V:4] c6B2 | 
[V:1] f4e4- | 
[V:2] F4c4 | 
[V:3] c4z4 | 
[V:4] A8 | 
[V:1] e2d2d4- | 
[V:2] B4G4 | 
[V:3] g8 | 
[V:4] G6FE | 
[V:1] d4c4 | 
[V:2] A3Bc3B | 
[V:3] f4e4- | 
[V:4] D4A4 | 
[V:1] d8 | 
[V:2] G3FGA_B2- | 
[V:3] e2d2d4- | 
[V:4] _B3AGFG2- | 
[V:1] z8 | 
[V:2] B2A4G2 | 
[V:3] d4^c4 | 
[V:4] GFEDE4 | 
[V:1] z4d4 | 
[V:2] A2d4c2 | 
[V:3] d8 | 
[V:4] D4G4- | 
[V:1] g6f2 | 
[V:2] B2A2G4- | 
[V:3] z8 | 
[V:4] G2F2E2D2 | 
[V:1] e4f4 | 
[V:2] G2A2_B4 | 
[V:3] z4d4 | 
[V:4] C4_B,4 | 
[V:1] e2c2d4 | 
[V:2] G3A_Bcd2 | 
[V:3] g6f2 | 
[V:4] C4_B,4 | 
[V:1] e4z4 | 
[V:2] G2c2dc_BA | 
[V:3] e4f4 | 
[V:4] C4_B,4 | 
[V:1] z4f4 | 
[V:2] G2A2_B4 | 
[V:3] e2c2d4 | 
[V:4] C4_B,4 | 
[V:1] e4d4- | 
[V:2] G2g3fd2 | 
[V:3] e4z4 | 
[V:4] C4G4 | 
[V:1] d2c2c4- | 
[V:2] f2e2c4 | 
[V:3] z4f4 | 
[V:4] A6B2 | 
[V:1] c4B4 | 
[V:2] g4z2g2 | 
[V:3] e4d4- | 
[V:4] c4G4 | 
[V:1] c8 | 
[V:2] f2e3dcB | 
[V:3] d2c2c4- | 
[V:4] A3Bc2F2- | 
[V:1] z4f4 | 
[V:2] AGG4F2 | 
[V:3] c4B4 | 
[V:4] F2E2D4 | 
[V:1] e2e4dc | 
[V:2] G2c3de2 | 
[V:3] c8 | 
[V:4] C4z2c2- | 
[V:1] e2d3cBA | 
[V:2] c2d3efd | 
[V:3] z4f4 | 
[V:4] c2BAB4 | 
[V:1] G4z2c2- | 
[V:2] e2c2g4- | 
[V:3] e2e4dc | 
[V:4] c4C4 | 
[V:1] c2BAB2cd | 
[V:2] g4G4 | 
[V:3] e2d3cBA | 
[V:4] G4z2G2 | 
[V:1] e2g3fed | 
[V:2] g3fedc2 | 
[V:3] G4z2c2- | 
[V:4] E2C2c3B | 
[V:1] c4d4 | 
[V:2] f2e2g2G2 | 
[V:3] c2BAB2cd | 
[V:4] A4G2B2 | 
[V:1] cdefede2- | 
[V:2] c3de2c2- | 
[V:3] e2g3fed | 
[V:4] A2G2c3B | 
[V:1] edc4B2 | 
[V:2] cdefg4- | 
[V:3] c4d4 | 
[V:4] A4G4 | 
[V:1] c8- | 
[V:2] g8 | 
[V:3] c8- | 
[V:4] C8- | 
[V:1] c8 |]  
[V:2] g8 |]  
[V:3] c8 |]  
[V:4] C8 |]  



